X:14
T:The Champion Hornpipe
M:4/4
L:1/8
C:James Hill
S:Darcie's TrTuneSbk Vo.2 (1998) p. 10
R:hornpipe
Z: Wosika
K:D
(3ABc | "D"d2 cB AGFE | D2 FA dfaf | "Emin"gBeg "D"fAdf | "A"eAgf e2 (3ABc |
"D"d2 cB AGFE | D2 FA dfaf  | "Emin"gBeg "D"fAdf | "A"eAce "D"d2 ::
de | "D"fadf A2 Bc | d2 cB AGFE | DFAd fadf | "Emin"eAgf "A"e2 de |
"D"fadf AdFA | DFAd fadf | "Emin"gBeg "D"fAdf | "A"eAce "D"d2 :|
